X:1
T:Nothing Satisfies but Jesus
T:Nothing Satisfies but Jesus
T:Lelia Naylor Morris
T:Lelia Naylor Morris, 1905
T:Public Domain Courtesy of the Cyber Hymnal™
T:Public Domain Courtesy of the Cyber Hymnal™
C:Lelia Naylor Morris
Z:Public Domain
Z:Courtesy of the Cyber Hymnal™
%%score 1 ( 2 3 )
L:1/8
Q:1/4=100
M:4/4
K:F
V:1 treble 
V:2 bass 
V:3 bass 
V:1
 [CF]3 [CF] [CF][CF][CE][CF] | [EG]4 [EG]4 | [EG]3 [EB] [EA][CG][CF][CG] | [CA]6 z2 | %4
w: 1.~Noth- ing sa- tis- fies but|Je- sus,|Bread of life to mor- tals|giv’n;|
w: 2.~Since I heard the voice of|Je- sus,|Since mine eyes be- held the|King,|
w: 3.~With His joy my heart is|thrill- ing,|All my hope in Him I|see;|
 [_Ec]3 [Ec] [Ec][EF][EG][EF] | [DF]4 [DB]4 | [FA]3 [EB] [EA][CG][CF][CE] | [CF]6 || %8
w: May His pre- sence now re-|fresh us|Like the morn- ing dew from|Heav’n!|
w: All my love, my heart’s af-|fec- tion,|All I have to Him I|bring.|
w: Doubt and gloom and fear dis-|pell- ing,|Christ is all in all to|me!|
"^Refrain" [CA]>[B,G] | [A,F]2 [CF]4 [GB]>[FA] | [EG]2 [EG]4 [EG]>[FA] | [EB]3 [FA] [Fc]3 [FA] | %12
w: ||||
w: Give me|Je- sus, give me|Je- sus; Take the|world, but give me|
w: ||||
 [FA]2 !fermata![EG]3 [B,C] [A,F]>[B,G] | [CA]4- [CA][CA][DB][CA] x2 | %14
w: ||
w: Je- sus; To sa- tis-|fy * with ev- ery|
w: ||
 [CA]2 [B,G]3 [B,G] [G,E]>[A,F] x | [B,G]4- [B,G][DB][CA][B,G] x2 | %16
w: ||
w: bless- ing, His love and|peace * my soul pos-|
w: ||
 ([A,F]>[B,G]) [CA]3 [_Ec][Ed][Ec] | [_Ec]4- [Ec][EF][EG][EF] | [DB]4- [DB][GB][FA][DG] | %19
w: |||
w: sess- * ing; To all be-|side * my heart re-|plies: * There’s naught but|
w: |||
 [CF][A,C] [CA]4- [CA][B,G] | [A,F]6 z2 |] %21
w: ||
w: Je- sus sa- * tis-|fies!|
w: ||
V:2
 [F,A,]3 [F,A,] [F,A,]A,[G,B,][F,A,] | [C,C]4 [C,C]4 | [C,C]3 [C,D] [C,C][C,B,][C,A,][C,E,] | %3
w: ~ ~ ~ ~ ~ ~|~ ~|~ ~ ~ ~ ~ ~|
 F,6 z2 | [F,A,]3 [F,A,] [F,A,][A,C][A,C][A,C] | B,4 [G,B,]4 | %6
w: ~|~ ~ ~ ~ ~ ~|~ ~|
 [C,C]3 [C,D] [C,C][C,B,][C,A,][C,B,] | [F,,F,A,]6 || z2 | F,F, [F,A,]2 [F,A,]2 z2 | %10
w: ~ ~ ~ ~ ~ ~|~||Give me Je- sus,|
 [C,C][C,C] [C,C]2 [C,C]2 [B,C]>[A,C] | [G,C]3 [F,C] [A,C]3 [F,C] | %12
w: give me Je- sus, * *||
 [C,C]2 !fermata![C,C]3 B, A,>B, | C4- ([F,,C,]2 C)CDC | [C,E,C]2 B,3 z B,G,>A, | %15
w: |||
 B,4- ([C,,C,]2 B,)DCB, | (A,>B,) [F,,F,C]3 [F,A,][F,A,][F,A,] | %17
w: ||
 [F,A,]4- [F,A,][F,A,][F,A,][F,A,] | [G,B,]4- [G,B,][G,,D][A,,C][B,,B,] | %19
w: ||
 [C,A,][C,F,] [C,-F,]4 [C,E,][C,E,] | [F,,F,]6 z2 |] %21
w: ||
V:3
 x5 A, x2 | x8 | x8 | F,6 x2 | x8 | B,4 x4 | x8 | x6 || x2 | F,F, x6 | x8 | x8 | x6 [F,,C,]2 | %13
 ([F,,F,]2 [F,,F,]2) [F,,C,]2 x4 | x2 [C,,C,]2 ([C,E,]2 [C,,C,]2) x | %15
 ([C,E,]2 [C,E,]2) [C,,C,]2 x4 | [F,,C,]2 x6 | x8 | x8 | x8 | x8 |] %21

